X:35
T:Youghal Harbour
R:hornpipe
M:4/4
L:1/8
K:G
(3def | gfed B2AB | dB (3ABA GEDE | GFGA BABd | edef g2 (3def |
gfed B2AB | dB (3ABA G2G2 | G2 G2 G2 :|
GA | Bdef g2fg | agfg e3g | fedB dBAB | d2de d2 (3def |
gfga gfed | (3Bcd BG EDBD | GFGA BABd | edef g2 (3def |
gfed B2AB | dB (3ABA G2G2 | G2 G2 G2 :|
